X: 42343
T: Weeping Birches Of Kilmorack, The
R: strathspey
M: 4/4
K: Fdorian
B,/A,/|G,>B, E>G =A/B/c/d/ e>c|BG G>F EC CB,/A,/|G,>B, E>G =E/F/G/=A/ Be|dB f=A B2B_d|
cA ed/c/ BG EB|AG FE B3B,|C>E D>F E/e/d/c/ BA|G<E G>F E3||
B|e/d/c/B/ =A/B/G/E/ B<G G>E|B,>E G,>E B,E GB|e/d/c/B/ =A/B/G/E/ B<G G>E|F<B =A<f B3=B|
c/d/e/c/ A/B/c/A/ B/d/e/B/ G/A/B/E/|AG FE B3=B|cA/F/ BG/E/ AF/D/ EB,/G,/|A,>C B,>D E3||

